X: 0844
T: THE STOOL OF REPENTANCE
B: Oliver Ditson "The Boston Collection of Instrumental Music" 1910 p.84 #4
F: http://conquest.imslp.info/files/imglnks/usimg/8/8f/IMSLP175643-PMLP309456-bostoncollection00bost_bw.pdf
%: 2012 John Chambers <jc:trillian.mit.edu>
M: 6/8
L: 1/8
K: G
d/e//f// |\
g2d B2d | gfe dcB | gee Te2d | egf Te2d |\
g2d B2d | gfe dcB | ~c2d ~e2d | e<g B TA2G :|
|:\
BGG dGG | BGG dcB | cAA eAA | cAA edc |\
BGG dGG | BGG dcB | ~c2d ~e2d | e<g B TA2G :|

%%sep 1 1 500
%%sep 1 1 500
